icons/game-controller.svg

<svg xmlns="http://www.w3.org/2000/svg" width="96" height="96"><path d="M72 24c6.4 0 12.5 2.5 17 7s7 10.6 7 17-2.5 12.5-7 17-10.6 7-17 7c-6.8 0-13.3-2.9-17.9-8H41.9c-4.6 5.1-11.1 8-17.9 8-6.4 0-12.5-2.5-17-7S0 54.4 0 48s2.5-12.5 7-17 10.6-7 17-7h48zm0 8c4.2 0 8.3 1.7 11.3 4.7S88 43.8 88 48c0 4.2-1.7 8.3-4.7 11.3S76.2 64 72 64c-5 0-9.8-2.4-12.8-6.4-.8-1-1.9-1.6-3.2-1.6H40c-1.3 0-2.4.6-3.2 1.6-3 4-7.8 6.4-12.8 6.4-4.2 0-8.3-1.7-11.3-4.7S8 52.2 8 48c0-4.2 1.7-8.3 4.7-11.3S19.8 32 24 32h48zM28 44v-4c0-1.1-.4-2.1-1.2-2.8-.7-.8-1.7-1.2-2.8-1.2-1.1 0-2.1.4-2.8 1.2-.8.7-1.2 1.7-1.2 2.8v4h-4c-1.1 0-2.1.4-2.8 1.2-.8.7-1.2 1.7-1.2 2.8 0 1.1.4 2.1 1.2 2.8.7.8 1.7 1.2 2.8 1.2h4v4c0 1.1.4 2.1 1.2 2.8.7.8 1.7 1.2 2.8 1.2 1.1 0 2.1-.4 2.8-1.2.8-.7 1.2-1.7 1.2-2.8v-4h4c1.1 0 2.1-.4 2.8-1.2.8-.7 1.2-1.7 1.2-2.8 0-1.1-.4-2.1-1.2-2.8-.7-.8-1.7-1.2-2.8-1.2h-4zm44-4c0-2.208 1.792-4 4-4s4 1.792 4 4-1.792 4-4 4-4-1.792-4-4zm-12 0c0-2.208 1.792-4 4-4s4 1.792 4 4-1.792 4-4 4-4-1.792-4-4zm0 12c0-2.208 1.792-4 4-4s4 1.792 4 4-1.792 4-4 4-4-1.792-4-4zm12 0c0-2.208 1.792-4 4-4s4 1.792 4 4-1.792 4-4 4-4-1.792-4-4z" fill-rule="evenodd" fill="#454545"/></svg>

<?xml version="1.0" standalone="no"?><!-- Generator: Gravit.io --><svg xmlns="http://www.w3.org/2000/svg" xmlns:xlink="http://www.w3.org/1999/xlink" width="96" height="96"><path d=" M 72 24 C 78.4 24 84.5 26.5 89 31 C 93.5 35.5 96 41.6 96 48 C 96 54.4 93.5 60.5 89 65 C 84.5 69.5 78.4 72 72 72 C 65.2 72 58.7 69.1 54.1 64 L 41.9 64 C 37.3 69.1 30.8 72 24 72 C 17.6 72 11.5 69.5 7 65 C 2.5 60.5 0 54.4 0 48 C 0 41.6 2.5 35.5 7 31 C 11.5 26.5 17.6 24 24 24 L 72 24 L 72 24 Z  M 72 32 C 76.2 32 80.3 33.7 83.3 36.7 C 86.3 39.7 88 43.8 88 48 C 88 52.2 86.3 56.3 83.3 59.3 C 80.3 62.3 76.2 64 72 64 C 67 64 62.2 61.6 59.2 57.6 C 58.4 56.6 57.3 56 56 56 L 40 56 C 38.7 56 37.6 56.6 36.8 57.6 C 33.8 61.6 29 64 24 64 C 19.8 64 15.7 62.3 12.7 59.3 C 9.7 56.3 8 52.2 8 48 C 8 43.8 9.7 39.7 12.7 36.7 C 15.7 33.7 19.8 32 24 32 L 72 32 L 72 32 Z  M 28 44 L 28 40 C 28 38.9 27.6 37.9 26.8 37.2 C 26.1 36.4 25.1 36 24 36 C 22.9 36 21.9 36.4 21.2 37.2 C 20.4 37.9 20 38.9 20 40 L 20 44 L 16 44 C 14.9 44 13.9 44.4 13.2 45.2 C 12.4 45.9 12 46.9 12 48 C 12 49.1 12.4 50.1 13.2 50.8 C 13.9 51.6 14.9 52 16 52 L 20 52 L 20 56 C 20 57.1 20.4 58.1 21.2 58.8 C 21.9 59.6 22.9 60 24 60 C 25.1 60 26.1 59.6 26.8 58.8 C 27.6 58.1 28 57.1 28 56 L 28 52 L 32 52 C 33.1 52 34.1 51.6 34.8 50.8 C 35.6 50.1 36 49.1 36 48 C 36 46.9 35.6 45.9 34.8 45.2 C 34.1 44.4 33.1 44 32 44 L 28 44 Z  M 72 40 C 72 37.79233988198995 73.79233988198995 36 76 36 C 78.20766011801005 36 80 37.792339881989946 80 40 C 80 42.20766011801005 78.20766011801005 44 76 44 C 73.79233988198995 44 72 42.207660118010054 72 40 Z  M 60 40 C 60 37.79233988198995 61.792339881989946 36 64 36 C 66.20766011801005 36 68 37.792339881989946 68 40 C 68 42.20766011801005 66.20766011801005 44 64 44 C 61.79233988198995 44 60 42.207660118010054 60 40 Z  M 60 52 C 60 49.79233988198995 61.792339881989946 48 64 48 C 66.20766011801005 48 68 49.792339881989946 68 52 C 68 54.20766011801005 66.20766011801005 56 64 56 C 61.79233988198995 56 60 54.207660118010054 60 52 Z  M 72 52 C 72 49.79233988198995 73.79233988198995 48 76 48 C 78.20766011801005 48 80 49.792339881989946 80 52 C 80 54.20766011801005 78.20766011801005 56 76 56 C 73.79233988198995 56 72 54.207660118010054 72 52 Z " fill-rule="evenodd" fill="#454545" stroke="none"/><mask id="_mask_AcaQJUOCh8g7wMPV3m7iarrPxWIrbamd"><path d=" M 72 24 C 78.4 24 84.5 26.5 89 31 C 93.5 35.5 96 41.6 96 48 C 96 54.4 93.5 60.5 89 65 C 84.5 69.5 78.4 72 72 72 C 65.2 72 58.7 69.1 54.1 64 L 41.9 64 C 37.3 69.1 30.8 72 24 72 C 17.6 72 11.5 69.5 7 65 C 2.5 60.5 0 54.4 0 48 C 0 41.6 2.5 35.5 7 31 C 11.5 26.5 17.6 24 24 24 L 72 24 L 72 24 Z  M 72 32 C 76.2 32 80.3 33.7 83.3 36.7 C 86.3 39.7 88 43.8 88 48 C 88 52.2 86.3 56.3 83.3 59.3 C 80.3 62.3 76.2 64 72 64 C 67 64 62.2 61.6 59.2 57.6 C 58.4 56.6 57.3 56 56 56 L 40 56 C 38.7 56 37.6 56.6 36.8 57.6 C 33.8 61.6 29 64 24 64 C 19.8 64 15.7 62.3 12.7 59.3 C 9.7 56.3 8 52.2 8 48 C 8 43.8 9.7 39.7 12.7 36.7 C 15.7 33.7 19.8 32 24 32 L 72 32 L 72 32 Z  M 28 44 L 28 40 C 28 38.9 27.6 37.9 26.8 37.2 C 26.1 36.4 25.1 36 24 36 C 22.9 36 21.9 36.4 21.2 37.2 C 20.4 37.9 20 38.9 20 40 L 20 44 L 16 44 C 14.9 44 13.9 44.4 13.2 45.2 C 12.4 45.9 12 46.9 12 48 C 12 49.1 12.4 50.1 13.2 50.8 C 13.9 51.6 14.9 52 16 52 L 20 52 L 20 56 C 20 57.1 20.4 58.1 21.2 58.8 C 21.9 59.6 22.9 60 24 60 C 25.1 60 26.1 59.6 26.8 58.8 C 27.6 58.1 28 57.1 28 56 L 28 52 L 32 52 C 33.1 52 34.1 51.6 34.8 50.8 C 35.6 50.1 36 49.1 36 48 C 36 46.9 35.6 45.9 34.8 45.2 C 34.1 44.4 33.1 44 32 44 L 28 44 Z  M 72 40 C 72 37.79233988198995 73.79233988198995 36 76 36 C 78.20766011801005 36 80 37.792339881989946 80 40 C 80 42.20766011801005 78.20766011801005 44 76 44 C 73.79233988198995 44 72 42.207660118010054 72 40 Z  M 60 40 C 60 37.79233988198995 61.792339881989946 36 64 36 C 66.20766011801005 36 68 37.792339881989946 68 40 C 68 42.20766011801005 66.20766011801005 44 64 44 C 61.79233988198995 44 60 42.207660118010054 60 40 Z  M 60 52 C 60 49.79233988198995 61.792339881989946 48 64 48 C 66.20766011801005 48 68 49.792339881989946 68 52 C 68 54.20766011801005 66.20766011801005 56 64 56 C 61.79233988198995 56 60 54.207660118010054 60 52 Z  M 72 52 C 72 49.79233988198995 73.79233988198995 48 76 48 C 78.20766011801005 48 80 49.792339881989946 80 52 C 80 54.20766011801005 78.20766011801005 56 76 56 C 73.79233988198995 56 72 54.207660118010054 72 52 Z " fill-rule="evenodd" fill="white" stroke="none"/></mask><path d=" M 72 24 C 78.4 24 84.5 26.5 89 31 C 93.5 35.5 96 41.6 96 48 C 96 54.4 93.5 60.5 89 65 C 84.5 69.5 78.4 72 72 72 C 65.2 72 58.7 69.1 54.1 64 L 41.9 64 C 37.3 69.1 30.8 72 24 72 C 17.6 72 11.5 69.5 7 65 C 2.5 60.5 0 54.4 0 48 C 0 41.6 2.5 35.5 7 31 C 11.5 26.5 17.6 24 24 24 L 72 24 L 72 24 Z  M 72 32 C 76.2 32 80.3 33.7 83.3 36.7 C 86.3 39.7 88 43.8 88 48 C 88 52.2 86.3 56.3 83.3 59.3 C 80.3 62.3 76.2 64 72 64 C 67 64 62.2 61.6 59.2 57.6 C 58.4 56.6 57.3 56 56 56 L 40 56 C 38.7 56 37.6 56.6 36.8 57.6 C 33.8 61.6 29 64 24 64 C 19.8 64 15.7 62.3 12.7 59.3 C 9.7 56.3 8 52.2 8 48 C 8 43.8 9.7 39.7 12.7 36.7 C 15.7 33.7 19.8 32 24 32 L 72 32 L 72 32 Z  M 28 44 L 28 40 C 28 38.9 27.6 37.9 26.8 37.2 C 26.1 36.4 25.1 36 24 36 C 22.9 36 21.9 36.4 21.2 37.2 C 20.4 37.9 20 38.9 20 40 L 20 44 L 16 44 C 14.9 44 13.9 44.4 13.2 45.2 C 12.4 45.9 12 46.9 12 48 C 12 49.1 12.4 50.1 13.2 50.8 C 13.9 51.6 14.9 52 16 52 L 20 52 L 20 56 C 20 57.1 20.4 58.1 21.2 58.8 C 21.9 59.6 22.9 60 24 60 C 25.1 60 26.1 59.6 26.8 58.8 C 27.6 58.1 28 57.1 28 56 L 28 52 L 32 52 C 33.1 52 34.1 51.6 34.8 50.8 C 35.6 50.1 36 49.1 36 48 C 36 46.9 35.6 45.9 34.8 45.2 C 34.1 44.4 33.1 44 32 44 L 28 44 Z  M 72 40 C 72 37.79233988198995 73.79233988198995 36 76 36 C 78.20766011801005 36 80 37.792339881989946 80 40 C 80 42.20766011801005 78.20766011801005 44 76 44 C 73.79233988198995 44 72 42.207660118010054 72 40 Z  M 60 40 C 60 37.79233988198995 61.792339881989946 36 64 36 C 66.20766011801005 36 68 37.792339881989946 68 40 C 68 42.20766011801005 66.20766011801005 44 64 44 C 61.79233988198995 44 60 42.207660118010054 60 40 Z  M 60 52 C 60 49.79233988198995 61.792339881989946 48 64 48 C 66.20766011801005 48 68 49.792339881989946 68 52 C 68 54.20766011801005 66.20766011801005 56 64 56 C 61.79233988198995 56 60 54.207660118010054 60 52 Z  M 72 52 C 72 49.79233988198995 73.79233988198995 48 76 48 C 78.20766011801005 48 80 49.792339881989946 80 52 C 80 54.20766011801005 78.20766011801005 56 76 56 C 73.79233988198995 56 72 54.207660118010054 72 52 Z " fill-rule="evenodd" fill="none" stroke="none" stroke-width="16" mask="url(#_mask_AcaQJUOCh8g7wMPV3m7iarrPxWIrbamd)"/></svg>
